!! 00000] TT[WS
!!!OTL: Da zao
!!!ARE: Asia, China, Shanxi Heshun
!! Ethnic Group: Han
!! WI, 124 (2)
!!!SCT: J0148
!!!YEM: Copyright 1995, estate of Helmut Schaffrath.
**kern
*ICvox
*Ivox
*M2/4
*k[b-e-a-]
*E-:
{4cc
8cc
8b-
=1
8cc
8dd
8cc
8cc
=2
8b-
8g
[4b-
=3
4b-]}
{8g
8b-
=4
4cc
8cc
8dd
=5
8cc
8b-
8a-
8g
=6
8f
8e-
[4f
=7
4f]}
{4cc
=8
8cc
8b-
8cc
8dd
=9
8cc
8cc
8b-
8g
=10
2b-}
=11
{8g
8b-
4cc
=12
8cc
8dd
8cc
8b-
=13
8a-
8g
8f
8e-
=14
2f}
=15
{8g
8f
4e-
=16
2f
=17
4.b-
8ee-
=18
8cc
8b-
8g
8f
=19
2e-}
=20
{4.cc
8ee-
=21
4.ff
8gg
=22
8ee-
8ff
8dd
8cc
=23
4.b-
8ee-
=24
8cc
8b-
8a-
8g
=25
4.b-
8cc
=26
2b-}
==
!!!AGN: Xiaodiao. Qingge
!!!ONB: ESAC (Essen Associative Code) Database: CHINA
!!!AMT: simple duple
!!!AIN: vox
!!!EED: Helmut Schaffrath
!!!EEV: 1.0
*-
!!!ONB: Tied note syntax fixed by Craig Sapp, 2004/05/03/
